X: 1
T: Bridal March From Unst
M: 3/4
L: 1/8
R: waltz
K: Dmaj
|: d2 |
D2 D2 E2 | F4 A2 | Bc d2 F2 | ED E4 |
d>B A2 D2 | DE F2 A2 | EG F2 D2 |D2 D4 :|
d2 |
B2 A2 d2 | B2 A2 d2 | B2 A2 d2 | B4 A2 |
B>>c d2 A2 | B>>c d2 A2 | B>>c d2 d2 | d4 F2 |
G3 G FE | F2 A3 A | Bc d2 F2 | ED E4 |
d>B A2 D2 | DE F2 A2 | EG F2 D2 |D2 D4 ||
K:Gmaj
|: g2 |
G2 G2 A2 | B4 d2 | e>f g2 B2 | A>G A4 |
g/f/g/e/ d2 G2 | G>A B2 d2 | Ac B2 G2 |G2 G4 :|
 (3gag |
e2 d2 (3gag | e2 d2 g2 | e2 d2 g2 | e4 d2 |
e>>f g2 d2 | e>f g2 d2 | ef g2 g2 | g4 B2 |
c2 c2 BA | B2 d2 d2 | e>f g2 B2 | AG A4 |
g/f/g/e/ d2 G2 | G>A B2 d2 | Ac B2 G2 |G2 G4 ||
K:Amaj
|: a2 |
A2 A2 B2 | c4 e2 | fg a2 c2 | BA B4 |
a/g/a/f/ e2 A2 | AB c2 e2 | Bd c2 A2 |A2 A4 :|
a2 |
f2 e2 a2 | f2 e2 a2 | f2 e2 a2 | f4 e2 |
f>>g a2 e2 | f>g a2 e2 | fg a2 a2 | a4 c2 |
d2 d2 cB | c2 e2 e2 | fg a2 c2 | BA B4 |
a/g/a/f/ e2 A2 | AB c2 e2 | Bd c2 A2 |A2 A4 ||
K:Amaj
|: [C2a2] |
[A,2A2] [A,2A2] [A,2B2] | [A,4c4] [C2e2] | [Cf][Cg] [C2a2] [A,2c2] | [A,B][A,A] [A,4B4] |
[Ca]>[Cf] [C2e2] [A,2A2] | [A,A][A,B] [A,2c2] [C2e2] | [A,B][A,d] [A,2c2] [A,2A2] |[A,2A2] [A,4A4] :|
[F2a2] |
[F2f2] [F2e2] [F2a2] | [F2f2] [F2e2] [F2a2] | [F2f2] [F2e2] [F2a2] | [F4f4] [F2e2] |
[Ff]>>[Fg] [F2a2] [F2e2] | [Ff]>[Fg] [F2a2] [F2e2] | [Ff][Fg] [F2a2] [F2a2] | [F4a4] [A,2c2] |
[A,2d2] [A,2d2] [A,c][F,B] | [A,2c2] [C2e2] [C2e2] | [Cf][Cg] [C2a2] [A,2c2] | [A,B][A,A] [A,4B4] |
[C/a/][C/g/][C/a/][C/f/] [C2e2] [A,2A2] | [A,A][A,B] [A,2c2] [C2e2] | [A,B][A,d] [A,2c2] [A,2A2] |[A,2A2] [A,4A4] ||
